resetCycles

d1 $ whenmod 22 20 ((degradeBy "0.5 0.8 1.4") . (chop "12 15") . (smash 12 [3, 4, 16])) $
stack [ -- %5
  -- kick + snare
  listen 1 $
  whenmod 18 16 ((# cut 0) . (loopAt "<2 6> 0.5 0.72 5") . (# smear "0.8 2 <6 0.3>") . (# gain 0.56)) $
  -- every 8 (append (s "{~ trp2_b:1@2 ~ dk:8}%5")) $
  every 3 (# bpf "603 567 293 109 68 40") $
  slow 2 $
  s "dgs:1(4, 15)"
    # octer "1 1 2 1"
    # octersub 3
    # octersubsub 6
    # cut 1
    # gain 0.64
    # orbit 1
  ,
  -- noise
  listen 1 $
  every 2 (striateBy "5 2 8" (1/4)) $
  foldEvery [4, 6] (fast "[[1.5 2] 6]*2") $
  s "~ supernoise@4"
    # att "4 0.3 2.4"
    # rel "0.3 1.4 2.2"
    # voice 1
    # speed 1.4
    # n 0.9
    # accelerate "0.2 0.7"
    # speed "2.4 0.2"
    # pitch1 "0.7 24 0.9 0.1 0.002 12"
    # slide "0.02 0.5 2 0.3"
    # resonance "[0.1 0.4 [0.02 3] 1.15]*2"
    # shape 0.4
    # cut 2
    # gain 0.64
  ,
  -- clap
  listen 1 $
  every 6 (rot "<8 12 18>") $
  every 3 (slow 2) $
  s "ds:8(1, 15, 6)"
    # shape 0.42
    # gain 0.65
  ,
  -- hihat
  listen 1 $
  every 2 (superimpose ((0.5 <~) . (randslice "5 1.2 3.6") . (# gain 0.64))) $
  whenmod 4 3 ((ghost' 0.3) . (# cut 2) . (# speed 1.8)) $
  swingBy 3 (1/6) $
  ghost $
  s "{[<grh:11 ~ grh:12> grh:5]}%5"
    # pan (range 0 1 $ fast 3 cosine)
    # gain 0.66
  ,
  -- bass
  listen 1 $
  foldEvery [3, 4, 5, 6, 8] (listen 0) $
  every 2 ((# rate 0.16) . (# accelerate 0.6) . (# freq 20)) $
  s "~@2 superhex@3"
    # sustain 0.8
    # freq 19
    # rate 0.3
    # accelerate 0.3
    # gain 0.64
    # orbit 1
  ,
  -- ambi
  listen 1 $
  whenmod 12 10 ((fast "2 6 9") . (# speed 0.2) . (spread ($) [gap 4, hurry "8 10 0.5"])) $
  every 8 (const $ s "") $
  every 3 (striateBy "<2 4 8>" (1/4)) $
  s "<sphere ~ [~ sphere:1*2] ~@2>"
    # cut "-1"
    # gain 0.56
] # cps 0.87

d1 silence

d2 $
someCyclesBy 0.13 (
  (0.25 <~) .
  (within (0.25, 0.5) (scramble "4 <2 7>")) .
  (# hpf "340 650 220")
) $
stack [ -- %7
  -- kick1
  listen 1 $
  whenmod 10 9 ((sparsity "0.3 0.5 0.3") . (# gain 0.96)) $
  s "~ ek:5 d8k:21 ~ ek:6 [~ ek:19]"
    -- # cut "<1 0>"
    # gain 1
  ,
  -- kick2
  listen 1 $
  foldEvery [4, 6] (# smear "<2 0.8>") $
  every 8 (0.25 <~) $
  swingBy 0.5 (1/6) $
  s "foleyperc:6"
    # gain 0.87
  ,
  -- snare
  listen 1 $
  every 2 (0.75 ~>) $
  (0.5 <~) $
  s "~@4 <<hbg_p:18 hbg_p:17> ~ hbg_p:17> ~@2"
    # gain 0.8
  ,
  -- perc
  listen 1 $
  every 2 rev $
  fast 2 $
  fix (# gain 0.75) (s "lmg_p:12") $
  s "[~@3 _ lmg_p:12 ~@2]/2"
    # pan 0.15
    # gain 0.9
  ,
  -- fx
  listen 1 $
  someCyclesBy 0.63 (const $ s "~") $
  whenmod 9 8 (# speed 0.12) $
  degradeBy 0.5 $
  loopAt 7 $
  s "el:15@7"
    # begin 0.14
    # end 0.5
    # speed 0.34
    # gain 0.86
  ,
  -- noise
  listen 1 $
  every 4 ((# begin 0.12) . (# end 0.13)) $
  every 3 ((fast "4 16 2") . (density "2 4 6") . (swingBy 2 (1/7))) $
  loopAt 3.5 $
  s "pss(1, 14, <3 4>)"
    # speed 1.5
    # begin "<0.03 <0.1 0.2>>"
    # end "<<0.5 0.3> <0.2 0.9>>"
    # pan (range 0 1 $ fast 2 rand)
    # cut 2
    # gain 1.2
] # cps 1.04

d2 silence

d3 $
whenmod 18 16 (
  (spread ($) [slow 2, palindrome, rev, degradeBy 0.25]) .
  (# room 0.1) .
  (# size 0.14)
) $
stack [ -- %7
  -- kick1
  listen 1 $
  sometimesBy 0.3 (# envT2 "[0.25 0.17]") $
  whenmod 12 10 (degradeBy 0.6) $
  whenmod 7 5 ((# envT1 "0.001 0.002 0.01") . (# envT2 "0.1 0.3 0.7") . (# sweep1 34)) $
  every 8 ((0.5 <~) . rev) $
  swingBy 1.25 (1/24) $
  s "[IkedaBassSd <IkedaBassSd [~ IkedaBassSd]> ~ IkedaBassSd _ IkedaBassSd ~]"
    # sustain 1
    # amp 2.3
    # envL1 0
    # envL2 0.25
    # envL3 0.4
    # envL4 0
    # envT1 0.01
    # envT2 0.2
    # envT3 0.08
    # envCurve "-5"
    # freq 0
    # sweep1 32.1
    # sweep2 168.3
    # vol1 2
    # vol2 0.09
    # hpf 102
    # gain 1
  ,
  -- kick2
  listen 1 $
  every 3 (within (0.5, 1) (fast 2)) $
  s "kick2newSd(<5 2>, 7, <2 5 6>)"
    # amp 1.9
    # gain 1
  ,
  -- hihat
  listen 1 $
  swingBy 0.75 (1/6) $
  whenmod 6 5 ((# rf1Freq 845) . (# rf2Freq 12345) . (# rf1Rq 0.15) . (# rf2Rq 0.3)) $
  every 3 (within (0.25, 0.5) ((density "2 4 12") . (ghost' 0.5))) $
  every 4 (const $ "haty48Sd(3, 14, <2 3 4>)" # amp 0.7) $
  s "{[haty48Sd ~, ~ <haty48Sd ~ haty48Sd haty48Sd>]}%7"
    # amp 0.7
    # envaT1 "0 0.01 0.00001 0.01 0.008 0 0.02"
    # lpf 11000
    # pan (range 0 1 $ fast "<2 3>" rand)
    # gain 1.1
    # orbit 3
  ,
  -- cymbal
  listen 1 $
  whenmod 9 7 (spread ($) [rev, palindrome, fast 2]) $
  s "{~ cymnew1Sd*<3.5 1.75 2>}%<7 3.5>"
    # amp 0.25
    # att "0.0001 0.01 0.1 0.012 0.001"
    # gain 1
    # orbit 3
  ,
  -- noise
  listen 1 $
  sometimesBy 0.17 (const $ s "~") $
  every 4 (# mFrq (range 0.0 0.09 $ slow 2 perlin)) $
  s "{feedbackOsc _ feedbackOsc*2}%3.5"
    # attack 0.1
    # release 1.4
    # mFrq 0.02
    # mFB "<1.4 0.9>"
    # freq "179 11000 230 1500 42"
    # fB "0.99 0.1 4 0.9"
    # width "0.1 0.2 0.6"
    # ffreq "65 2346 11786 63"
    # rq 0.2
    # gain 0.74
  ,
  -- ambi
  listen 0 $
  whenmod 12 10 (const $ s "~") $
  somecyclesBy 0.25 (densityGap "2 <0.5 6>") $
  every "<8 16>" ((# freq 615) . (# hpf 1943)) $
  s "ShaiSd/2"
    # amp 0.22
    # hpf 340
    # cut 1
    # gain 1
    # orbit 3
] # cps 0.88

d3 silence

d4 $ whenmod 19 17 (
  within (2/5, 4/5) (
    (# binshift "0.3 0.1 0.08 0.4") .
    (slow "[2 4]")
  )
) $
stack [ -- %5
    -- bass
    listen 1 $
    sometimesBy 0.25 (const $ s "~") $
    whenmod 6 5 (-| tu (range 0 2 $ slow 2 sine)) $
    (wchoose [(1, 0.5), (0.75, 0.5)] <~) $
    s "~@3 <kick3Sd@2 ~@2> ~"
      # amp 0.99
      # atk 0.1
      # rls 1.2
      # att 0.01
      # decay 1
      # sustain 1
      # rel 2
      # hpf 40
      # tu 1
      # gain 1
    ,
    -- kick
    listen 1 $
    whenmod 9 8 ((# sinFb 12) . (# sinDecDiv "12 18.8")) $
    whenmod 8 6 ((# sawFreq "43 200") . (# envfL4 "21 42 54")) $
    every 4 (within (0, 1/5) (# nudge 0.002)) $
    every 2 (0.5 <~) $
    s "[[~ ringkickSd _ ringkickSd _] <ringkickSd ~ ringkickSd>, ~ _ <~ ringkickSd> ~ <ringkickSd [~@2 ringkickSd]>]"
      # amp 0.98
      # dcy 1.8
      # att 0.01
      # decay 1
      # sustain 1
      # rel 2
      # lpfFreq 13760
      # freq "26 42 26"
      # envfL1 0
      # envfL2 6946.9
      # envfL3 66.2
      # envfL4 20
      # envfL5 0
      # envfT1 0.0002
      # envfT2 0.0001
      # envfT3 0.3
      # envfT4 0.53
      # curve "-4.92"
      # envfAmt 0.32
      # lfnFrq 59.2
      # lfnAmt 0
      # ringAmp 0.1
      # sawFreq 22
      # sawPh 6.19
      # sawDecDiv 10
      # sawAmp 0.16
      # sinFreq 10010
      # sinFb 9
      # sinDecDiv 188
      # sinAmp 0.29
      # gain 0.94
    ,
    -- noise1
    listen 1 $
    every 8 ((density 1.15) . (# fm2 0.1)) $
    s "{~ complexoscSd*2 complexoscSd ~ complexoscSd ~}%5"
      # amp 0.2
      # feedBack "0.43 <0.42 0.41>"
      # envL1 0
      # envL2 2
      # envL3 0
      # envL4 0.99
      # envT1 "2 0.64"
      # envT2 "0.52 2"
      # envT3 "0.19 1 2.6"
      # envCurve "-7.35 -21"
      # freq1 "1"
      # fm1 5000
      # pm1 8.94
      # amp1 0.8
      # ring1 3.62
      # offset1 "0 0.23 0.62"
      # freq2 "32.09 12.3"
      # fm2 0
      # pm2 0.8
      # amp2 0.27
      # ring2 "1 0.03 0.07 0 0.01"
      # offset2 "-1.96"
      # fold 0.9
      # wrap 0.82
      # switch 2
      # gain 0.89
    ,
    -- noise2
    listen 1 $
    sometimesBy 0.34 (const $ s "~") $
    s "haten1Sd haten1Sd ~ haten1Sd ~"
      # amp 0.2
      # envT1 "0.2 0.1"
      # pan ((0.25 <~) $ range 0 1 $ slow 2 rand)
      # gain 0.97
      # orbit 4
    ,
    -- hihat
    listen 1 $
    whenmod 7 6 ((degradeBy 0.6) . (# binshift 0.5)) $
    swingBy 0.2 (1/3) $
    s "~ kick3AwSd <kick3AwSd ~> [kick3AwSd _ <kick3AwSd ~> _] kick3AwSd"
      # amp 0.7
      # envL1 0
      # envL2 2.21
      # envL3 0
      # envL4 5
      # attack 0
      # decay 0.3
      # release 0.14
      # punch 0.37
      # envfLev1 369
      # envfLev2 19951
      # envfTime 0.01
      # envfCurve "-90.47"
      # pan (range 0 1 $ rand)
      # gain 0.97
      # orbit 4
    ,
    -- cymbal
    listen 1 $
    whenmod 8 6 (
      (# envC1 "-12 -32 -3 67") .
      (# envC2 "32 32 -3 67") .
      (# envC3 "12 67 -2 -3")
    ) $
    whenmod 5 4 (within (2/5, 4/5) rev) $
    every 4 (0.5 <~) $
    s "<[cym1Sd ~ cym1Sd] ~ [~ cym1Sd]> cym1Sd _ cym1Sd*2 cym1Sd _ cym1Sd cym1Sd _ ~ cym1Sd"
      # amp 0.23
      # envL1 "0.76 0 0.2"
      # envL2 0
      # envL3 0.32
      # envL4 0.72
      # envT1 0.11
      # envT2 0.13
      # envT3 0.04
      # envC1 "-4.1"
      # envC2 "20"
      # envC3 "-40"
      # tu 0.91 -- 0.56
      # pan ((0.75 ~>) $ range 0.25 0.75 $ slow 2 tri)
      # gain 0.97
    ,
    -- flute
    listen 0 $
    sometimesBy 0.42 (const $ s "~") $
    every 4 (within (0, 1/5) (# freq 120)) $
    slow 2 $
    s "[waveguideFluteSd _ waveguideFluteSd@3]"
      # amp 0.2
      # freq 320
      # gain 0.97
      # orbit 4
    ,
    -- nappe
    listen 1 $
    sometimesBy 0.28 (const $ s "~") $
    whenmod 6 5 (wchoose [(1, 0.5), (0.5, 0.25), (2 ,0.25)] ~>) $
    every 16 (# tu "1.6") $
    slow 4 $
    s "corman1Sd"
      # amp 0.26
      # tu 1
      # attack 2
      # release 16
      # gain 1
      # orbit 4
] # cps 0.78

d4 silence

d5 $
sometimesBy "<0.05 0.1 0.2>" (
  (densityGap "6 2 4") .
  (scramble "<5 10 15>") .
  (# binshift "0.02 0.1 0.4")
) $
stack [ -- %5
  -- kick1
  listen 1  $
  someCyclesBy 0.15 (fastAppend (s "<~ ~@2>")) $
  whenmod 9 8 (# curveBpf "-23 -12 3") $
  every 8 ((# timeScaleBpf "2 1.2") . rev) $
  every 2 (within (2/5, 3/5) (# nudge 0.1)) $
  -- s "drumkickSd(3, 5, <7 9 5>)"
  s "drumkickSd(4, 5, <1 6 5>)"
    # amp 0.7
    # attack 0.15
    # decay 1
    # sustain 1
    # release 0.2
    # curve "-39.7"
    # attSinFreq 0.01
    # relSinFreq 1.12
    # curveSinFreq "-60"
    # levSin 0.26
    # attBpfFreq 0.02
    # relBpfFreq 0.3
    # timeScaleBpf 1.11
    # curveBpf "-200"
    # levBpf 0.18
    # levScaleBpf 6000
    # levBiasBpf 21.3
    # lineStartBpf 0.3
    # lineEndBpf 0
    # lineLevBpf 0.15
    # gain 0.98
  ,
  -- kick2
  listen 1 $
  whenmod 21 20 (# binshift 0.3) $
  swingBy 0.75 (1/4) $
  -- s "[[<snapkickSd ~> ~] <snapkickSd ~ [~@2 snapkickSd _]> _ ~ <[~ snapkickSd] [~ snapkickSd _]>]"
  s "{<~ snapkickSd> <snapkickSd ~> <~ [~ snapkickSd]> _ snapkickSd}%5"
    # amp 0.88
    # attack 0.001
    # decay 1
    # sustain 1
    # release 1
    # bdFrqL1 241
    # bdFrqL2 71
    # bdFrqL3 48.5
    # bdFrqT1 0.0001
    # bdFrqT2 7
    # bdFrqC "-48"
    # bdAmpAtt 0.0001
    # bdAmpSus 0.5
    # bdAmpRel 0.02
    # bdAmpLev 1.66
    # bdAmpCurve 47.4
    # popFrqSt 150
    # popFrqEnd 241
    # popFrqDur 4
    # popAmpAtt 0.2
    # popAmpSus 1
    # popAmpRel 4
    # popAmpLev 0.3
    # clkAmpAtt 0
    # clkAmpRel 0.01
    # clkAmpLev 0.79
    # clkAmpCurve "-14.9"
    # clkfFundFreq 910
    # clkfFormFreq 4760
    # clkfBwFreq 12110
    # clkLpfFreq 13140
    # hpf 100
    # gain 0.95
  ,
  -- snare
  listen 1 $
  someCyclesBy 0.5 (const $ s "~") $
  sometimesBy 0.19 (# nudge "0 0 0.1 0 0") $
  every 4 (0.5 <~) $
  (0.25 ~>) $
  s "{~ _ kraftySnareSd _ <~ kraftySnareSd>}%5"
    # amp 0.82
    # dec "0.03 0.02 0.04 0.06 0.034"
    # gain 1
    # orbit 5
  ,
  -- hihat
  listen 1 $
  sometimesBy "0.2 0.12 0.3" (# cvar "0.7 0.9 0.2") $
  whenmod 6 5 ((within (2/5, 3/5) (fast "[2 4]")) . (# bvar "0.9 2.58 4")) $
  every 4 ((wchoose [(1, 0.5), (0.5, 0.5)] <~) . (# env0T1 "0.2 0.18") . (# env0L2 "0.1 0.02")) $
  every 2 (# avar "0.02 0.03") $
  s "newNoise48(<3 4>, 5, <2 8 3 2>)"
    # amp 1
    # env0L1 0.35
    # env0L2 0
    # env0L3 2.68
    # env0L4 0
    # env0T1 0.12
    # env0T2 2.11
    # env0T3 0
    # env0T4 0
    # offset 0.79
    # timeScale 0.26
    # coeff 0.28
    # avar 0.05
    # bvar 3.8
    # cvar 0.84
    # dvar 2.54
    # xi 1
    # yi 0.07
    # hpf 563
    # gain 0.97
    # orbit 5
  ,
  -- clickhi
  listen 1 $
  whenmod 19 17 ((# sinFrq1 (range 20 14000 $ slow 2 sine)) . (# sinLev1 6.6)) $
  every 4 ((density 0.4) . (# mix 0.1)) $
  every 2 (within (3/5, 1) (fast 2)) $
  s "{[fabHiSd ~ [~ fabHiSd _ fabHiSd], ~ fabHiSd]}%1.25"
    # amp 0.2
    # wamp 0.84
    # envNatt 0
    # envNrel 0.26
    # wbpfFreq 3182
    # wbpfRq 1
    # sinFrq1 1365
    # sinFrq2 12423
    # sinPh1 0
    # sinPh2 0.02
    # sinLev1 14.13
    # sinLev2 5.56
    # envSatt 0.24
    # envSrel 0.2
    # mix 0.6
    # envL1 0
    # envL2 1
    # envL3 0.94
    # envT1 0.04
    # envT2 "0.02 0.06 0.01 0.018 0 0.02 0.06 0.01 0.018 3.11"
    # envT3 "0.07 0.01 0.07 0.002 0.03 0.007"
    # ffreq 10580
    # pan (range 0.25 0.85 $ fast 2 rand)
    # gain 0.9
    # orbit 5
  ,
  -- woody
  listen 1 $
  loopAt "5 2.5 1.125" $
  s "{bf:4}%1.125"
    # speed "-2 -3"
    # gain 0.7
    # orbit 5
] # cps 1.27

d5 silence

d6 $
whenmod 20 18 (
  (slow "1 2") .
  (degradeBy "0.3 <0.24 0.6> 0.12 0.07 0.2") .
  (off 1.125 ((slow "16 32") . (iter "<7 28> 14"))) .
  (splice 7 (segment "<<5 6> <4 5>>" (irand 7))) .
  (1 ~>)
) $
stack [ -- %7
  -- kick1
  listen (cF 1 "87") $
  slow 2 $
  someCyclesBy "<0.2 0.24 0.13>" (splice 7 (segment 7 (irand 7))) $
  whenmod 5 4 ((# freqenvL1 "222 812") . (# freqenvT1 "5 3")) $
  every 8 (# ampenvT2 "1.3 1.2") $
  s "[kicklaserbeamSd _] ~@2 [~ kicklaserbeamSd ~] ~ <kicklaserbeamSd [~ kicklaserbeamSd ~@2]> _"
    # freqenvL1 3.97
    # freqenvL2 5
    # freqenvL3 0
    # freqenvL4 2.97
    # freqenvT1 0.16
    # freqenvT2 0.07
    # freqenvT3 0.26
    # ampenvL1 1
    # ampenvL2 1
    # ampenvL3 0
    # ampenvL4 0
    # ampenvT1 0.02
    # ampenvT2 0.2
    # ampenvT3 0.1
    # hpfFreq 50
    # hpfRq 1
    # attack 0
    # sustain 1
    # release 1
    # gain 0.9
  ,
  -- kick2
  listen (cF 0 "88") $
  every 4 (within (2/7, 3/7) ((2/7) ~>)) $
  every 3 ((# enfL2 "341 732") . (# enfL3 "130 69") . (# enfT1 "<1 2>")) $
  ((1/14) <~) $
  s "~ _ kick808newSd@2 ~ <<[~ kick808newSd] [kick808newSd _]> ~> _"
    # amp 0.85
    # envL1 1.33
    # envL2 0.99
    # envL3 0
    # envT1 0.27
    # envT2 1
    # envCurve "-8"
    # enfL1 14235
    # enfL2 100
    # enfL3 30
    # enfT1 0.0001
    # enfT2 0.01
    # enfCurve "-4"
    # tu 2
    # sin2Frq 10
    # sin2Amp 48
    # hpf 80
    # gain 1
  ,
  -- kick3
  listen (cF 1 "89") $
  whenmod 7 6 ((# frqScale "21 18") . (# squiz "<1.4 0.012 0.008>") . (# amp 0.32)) $
  every 4 (# kharm1 "100 <3999 429>") $
  ((4/7) ~>) $
  s "~@4 kickParallaxSd _@2"
    # amp 0.4
    # envAmpAtt 0
    # envAmpRel 0.3
    # envFrqAtt 0
    # envFrqRel 0.02
    # kharm1 1
    # kharm2 2
    # kharm3 8544
    # kharm4 16451
    # kamp1 0.05
    # kamp2 0.05
    # kamp3 0.05
    # kamp4 0.08
    # kring1 0.18
    # kring2 3.16
    # kring3 0.06
    # kring4 0
    # frqScale 1
    # decScale 1
    # resoMix 0.5
    # gain 1
  ,
  -- click
  listen (cF 1 "90") $
  sometimesBy 0.12 (const $ "~") $
  every 3 (ghost' 0.125) $
  swingBy 0.14 (3/7) $
  s "kickParallaxSd*7"
    # amp "0.7 0.6 0.54 0.67 0.62 0.7 0.68"
    # envAmpAtt "0 0.01 0.02 0 0 0.001 0.002"
    # envAmpRel 0.01
    # envFrqAtt 0
    # envFrqRel 0.03
    # freq 15039
    # kharm1 20
    # kharm2 13544
    # kharm3 8241
    # kharm4 16451
    # kamp1 0.3
    # kamp2 0.05
    # kamp3 0.06
    # kamp4 0
    # kring1 0.18
    # kring2 3.16
    # kring3 0.06
    # kring4 0
    # frqScale 1
    # decScale 1
    # resoMix 0
    # gain 1.05
    # orbit 6
  ,
  -- cymbal
  listen (cF 1 "91") $
  someCyclesBy 0.36 (slow 0.5) $
  someCyclesBy 0.19 ((slow "<0.25 0.125>") . (chew 7 "6 4 5 7 0 2 3 1")) $
  every 8 rev $
  slow 4 $
  ((2/7) ~>) $
  s "<hat909Sd*3 ~> hat909Sd?0.6 _ <~ hat909Sd*2> _ ~@2"
    # amp 0.3
    # envL1 0
    # envL2 0.98
    # envL3 0.12
    # envL4 0.9
    # envT1 0.2
    # envT2 0.01
    # envT3 0.32
    # envCurve "-4"
    # gain 1
  ,
  -- breath
  listen (cF 1 "92") $
  ((1/7) ~>) $
  s "attBreathSd/2"
    # amp 3
    # attack 0.01
    # release 1.84
    # seqv1 0
    # seqv2 3.31
    # seqv3 4
    # seqv4 3.77
    # seqv5 4.01
    # seqFreq "0.08 0.16"
    # freqMin 250
    # freqMax 800
    # bwrMod "0.5 0.1 0.2"
    # gain 1
    # orbit 6
  ,
  -- snare
  listen (cF 1 "93") $
  sometimesBy 0.38 (const $ s "~") $
  every 8 (((4/7) ~>) . (# envT1 0.02) . (# envT2 0.05)) $
  ((1/7) <~) $
  s "jungleSnareSd/2"
    # amp 0.4
    # envL1 1
    # envL2 0
    # envL3 1
    # envL4 0
    # envT1 0.04
    # envT2 0.5
    # envT3 0.34
    # envCurve "-2"
    # envfL1 92.29
    # envfL2 295.44
    # envfL3 4962.07
    # envfL4 144.33
    # envfT1 0.03
    # envfT2 0
    # envfT3 0
    # envfCurve "-18"
    # envnAtt 0
    # envnRel 0.27
    # envnCurve "-2.45"
    # noiseAmp 0.08
    # tu 1 -- 1.43
    # kracter 5.38
    # hpfRq 1
    # lpfRq 0.5
    # gain 1
  ,
  -- clap
  listen (cF 1 "94") $
  whenmod 6 4 (|*| envaT2 "0.13 4 0.21") $
  every 4 palindrome $
  (1 ~>) $
  s "~ <t1kick2Sd ~ [~ t1kick2Sd]> ~ t1kick2Sd@0.5"
    # amp 0.64
    # envaT1 0.53
    # envaL1 1
    # envaT2 0.6
    # envaL2 1.85
    # envaT3 0.2
    # envaL3 0.5
    # envaT4 0.2
    # envaL4 0
    # envaCurve "-4"
    # envfT1 0
    # envfL1 9752
    # envfT2 0.002
    # envfL2 20
    # envfT3 0.1
    # envfL3 0
    # envfT4 1
    # envfL4 4
    # envfCurve "-4"
    # pitch 1.05
    # hpfFreq 597
    # hpfRq 1
    # verbMix 0.5
    # verbRoom 6.27
    # verbTime 4.75
    # verbDamp 0.65
    # gain 1
    # orbit 6
  ,
  -- ambi
  listen (cF 1 "48") $
  slow 8 $
  every 4 (bite 7 (segment 14 (irand 14))) $
  fix (# gain 0.85) (s "lmg_r:4") $
  s "lmg_d:7 _ <lmg_r:5 lmg_r:4> ~@0.5"
    # gain 0.98
    # orbit 6
] # cps 1.4

d6 silence

d7 $ stack [ -- % 4
  -- kick1
  listen (cF 1 "87") $
  s "~@3 [IkedaBassSd ~ IkedaBassSd@0.5 ~@0.5]"
    # amp 1
    # sustain 1.2
    # envL1 0
    # envL2 0.25
    # envL3 0.4
    # envL4 0
    # envT1 0.01
    # envT2 0.21
    # envT3 0.08
    # envCurve "-5"
    # freq 10
    # sweep1 22.1
    # sweep2 168.3
    # vol1 2
    # vol2 0.09
    # hpf 80
    # gain 1.12
  ,
  -- kick2
  listen (cF 1 "88") $
  cat [
    (s "~ kickMistSd ~ <kickMistSd <[~ kickMistSd] ~>>"),
    (s "kickMistSd ~ <~ [kickMistSd ~@2]> ~")
  ]
    # level 1
    # sustain 2.3
    # release 1
    # tu 0.8
    # noise 1
    # env0L1 0
    # env0L2 1 -- 14
    # env0L3 0.29
    # env0L4 0
    # env0T1 0
    # env0T2 0.15
    # env0T3 8.26
    # curve0_1 "-4"
    # curve0_2 "-2"
    # curve0_3 "-4"
    # env1L1 7581.71
    # env1L2 65.26
    # env1L3 29
    # env1T1 "0.002 0.001 0.02 0.1"
    # env1T2 0.29
    # curve1_1 "-4"
    # curve1_2 "-5"
    # gain 0.68
  ,
  -- kick3
  listen (cF 1 "89") $
  sometimesBy 0.1 ((# bpeqamp1 "-14") . (# gain 0.9)) $
  every 8 ((# tu "<24 33>") . (# gain 0.86)) $
  cat [(s "kick2new(3, 5)"), (s "kick2new(2, 3, <2 4>)")]
    # amp 2
    # sustain 1.1
    # envfT1 0.002
    # envfT2 1
    # freq 42
    # tu 1.53
    # bpeqf1 981
    # bpeqrq1 0.41
    # bpeqamp1 "-54"
    # bpeqf2 800
    # bpeqrq2 10
    # bpeqamp2 "-6"
    # hpff 81
    # gain 0.97
  ,
  -- echo
  listen (cF 1 "90") $
  s "tweetFogAttackSd? ~ ! tweetFogAttackSd@0.5 _@0.5"
    # amp 1
    # attack 0.01
    # release 2.5
    # sigatt 0
    # sigdec 2.11
    # feedBack "0.04 0.04 0.025"
    # freq "1.42 1.03 0.91"
    # gain 0.87
    # orbit 7
  ,
  -- snare1
  listen (cF 1 "91") $
  whenmod 8 6 (# fm1 5000) $
  every 4 (# feedBack "0.3 0.2 1 0.4") $
  s "<complexoscSd*8 [complexoscSd@0.5 complexoscSd/2 complexoscSd*2 _]>"
    # amp 1
    # feedBack "0.3 1 0.2 1 0.4" -- 0.2
    # envL1 0
    # envL2 2
    # envL3 0
    # envL4 0.99
    # envT1 "<0.64 1.2>"
    # envT2 0.52
    # envT3 0.19
    # envCurve "-7.35"
    # freq1 2980
    # fm1 500
    # pm1 8.94
    # amp1 0.8
    # ring1 0.92 -- 1
    # offset1 "0 -6.2 0.23 7"
    # freq2 "32.09 12.3" -- 12.3
    # fm2 20
    # pm2 0.8
    # amp2 0.27 -- 0
    # ring2 "0.1 0.03 0.07 0 0.01" -- 1
    # offset2 "-1.96"
    # fold 1.9
    # wrap 0.82
    # switch 4
    # gain 0.65
    # orbit 7
  ,
  -- snare2
  listen (cF 1 "92") $
  every 4 (within (1/4, 1) (palindrome . (fast "<2 3>"))) $
  (0.25 ~>) $
  s "~ cymbalicMcldSd <cymbalicMcldSd ~ [~ cymbalicMcldSd@0.5]> _"
    # amp 0.5
    # sustain 2
    # attLowf 0.5
    # relLowf 5
    # lowNoiseLev 0.1
    # attHif 1
    # relHif 3
    # hiNoiseLev 0.1
    # attHi 1
    # relHi 2
    # hiLev 0.25
    # attTh 0.001
    # relTh "0.001 0.02 0.001"
    # freq1 460
    # freq2 540
    # freq3 13807
    # freq4 476
    # gain 0.8
    # orbit 7
  ,
  -- hihat
  listen (cF 1 "93") $
  sometimesBy 0.34 (ghost' 0.8) $
  swingBy 0.7 (1/4) $
  s "fabHi1Sd*8"
    # amp 0.12
    # wamp 1
    # envNatt 0
    # envNrel 0.105
    # wbpfFreq 6255
    # wbpfRq 1
    # sinFrq1 2120
    # sinFrq2 12423
    # sinPh1 0
    # sinPh2 0
    # sinLev1 5.56
    # sinLev2 15.25
    # envSatt "0 0.1 0.2 0.21"
    # envSrel 0.07
    # mix "-0.11"
    # envL1 0
    # envL2 1
    # envL3 1
    # envL4 0
    # envT1 "0.01 0"
    # envT2 0
    # envT3 0
    # ffreq 1600
    # pan (range 0 1 $ slow "<2 4 0.5>" cosine)
    # gain 1
    # orbit 7
  ,
  -- ambi
  listen (cF 1 "94") $
  s "talters1Sd talters1Sd@3"
    # amp 1
    # attack 0.01
    # release 9
    # feedBack 1.14
    # envL1 0
    # envL2 0
    # envL3 25.96
    # envL4 16
    # envT1 0.01
    # envT2 0.79
    # envT3 0.53
    # envCurve "-8.03"
    # decDens 0.2
    # decTimeFreq 10
    # decamp 794
    # gain 0.8
] # cps 1.04

d7 silence
