-- let listen n p = (|* gain n) $ p -- mute function, use it in stack
let listen n p = if (n > 0)
                    then id $ p
                    else (const $ s "") $ p

d1 $ every 7 (
  (# cut "0 3") .
  (degradeBy (wchoose [(1.3, 0.4), (0.35, 0.6)])) .
  (# accelerate "[0.4 0.6 [1.2 1.5 1.6] 0.9]/2") .
  (# delay (fromTo 0 0.37)) .
  (# delayt "[0.3 [0.05 0.1] <0.7 0.5> 0.8]") .
  (# delayfb (range 0.1 0.33 $ perlin)) .
  (# size (fromTo 0 0.26)) .
  (# room "0.14 0.22")
) $
stack [
  -- voice
  listen 1 $
  sometimesBy 0.42 ((density 4) . (fastAppend (s "trp1_fx:13" # gain 0.45))) $
  whenmod 5 3 ((# cut (wchoose [(2, 0.6), (0, 0.4)])) . (# speed "0.4 0.35 <1 0.4>")) $
  loopAt 1 $
  s "trp1_fx:10"
    # gain 0.76
  ,
  -- drone
  listen 1 $
  whenmod 4 3 (wchoose [(0.25, 0.25), (1.75, 0.25), (1.5, 0.25), (1.25, 0.25)] <~) $
  every 3 (# speed "0.4 <0.32 0.26 0.16> 0.96 0.87") $
  s "ag:6"
    # unit "c"
    # legato 0.6
    # cutoff 900
    # cut (wchoose [(2, 0.3), (0, 0.7)])
    # gain 0.8
  ,
  -- metal
  listen 1 $
  whenmod 3 2 ((hurry "0.2 0.5 2 6") . (# gain "1 1 0.92 0.86")) $
  s "bm:6*4"
    # gain 0.98
  ,
  -- hihat
  listen 1 $
  every 3 ((superimpose rev) . (# cut 1)) $
  within (0.2, 0.8) (ghost) $
  s "[grprc:5 _ [grprc:5 grprc:3 ~] grprc:3 [grprc:5*2 ~] grprc:5]*2"
    # speed "1.2 <3 2>"
    # pan 0.66
    # cut "0 1"
    # gain 0.89
  ,
  -- kick1
  listen 1 $
  sometimesBy 0.22 ((spin 2) . (slow "2 4")) $
  whenmod 4 3 ((degradeBy "[0.22 0.2 [0.15 0.7]]") . (# end "0.25 <0.5 0.75>")) $
  every 2 (fastappend (s "[tkc:5 sine:2 ~*2 tkc:5]*2" # cut 2 # gain 1.2)) $
  s "[tkc:5 sine:2 tkc:5*2 ~]*2"
    # cut 2
    # gain 1.1
  ,
  -- kick2
  listen 1 $
  whenmod 5 4 (within (0, 0.5) (stutWith "3 5 7" (range 0.125 56 $ rand) ((fastRepeatCycles 4) . (|* gain 0.8)))) $
  every 3 (wchoose [(0.2, 0.65), (0.8, 0.35)] ~>) $
  s "[~ d8k:7 ~ _ d8k:8]*4"
    # gain 0.98
  ,
  -- snare
  listen 1 $
  someCyclesBy 0.34 (densityGap "0.3 0.7 1.5") $
  s "~ brf:2*3 ~ brf:2"
    # gain 0.95
] # cps 0.2

d1 silence

d2 $ every 10 (
  fastAppend ( -- nappe
    every 4 (superimpose ((# start 0.25) . (rev))) $
    struct (ascii "<[a d] [c e h] f>") $
    sometimesBy 0.21 (fast "2 <1.3 0.5>") $
    fix ((# speed "<0.54 0.36>") . (# gain 0.48)) (s "trp1_fx:33") $
    s "trp1_fx:43 trp1_fx:33"
      # att 3.1
      # speed 0.33
      # hpf 118
      # cut "0 1 1"
      # gain 0.6
    )
) $
stack [
  -- kick
  listen 1 $
  whenmod 5 4 ((within (0, 0.5) (# cut "<0 1>")) . (within (0.5, 1) (chop "6 8"))) $
  every 3 (within (0.25, 1) (rev)) $
  fix (# gain 0.9) (s "trp2_fx:3") $
  s "~ trp2_fx trp1_8:9 trp2_fx:3"
    # gain 1
  ,
  -- hihat
  listen 1 $
  sometimesBy 0.24 (stutWith 4 (1/12) ((|* speed 0.5 ) . (slow "3 4 2"))) $
  whenmod 4 2 ((hurry "1.2 0.4 1.1 0.95")) $
  fix ((# begin 0.12) . (# att (range 0.1 0.9 $ slow 6 perlin)) . (# rel "1.2 2.5") . (# gain 0.8)) (s "trp2_h:2") $
  s "[trp2_h*3 [trp2_h:2 trp2_h]*2 [trp2_h:2 _ ~ trp2_h*5] ~ trp2_h:2*2 ~]*2"
    # rel 0.01
    # room "0.02 0.1 0.12 0.15 0.2"
    # gain 0.9
  ,
  -- clap
  listen 1 $
  every 4 (hurry "0.2 0.7 0.8") $
  every 2 (wchoose [(0.25, 0.25), (1.75, 0.5), (0.5, 0.25)] ~>) $
  chop 8 $
  s "trp1_p:24*4"
    # rel "0.02 0.11 0.01 0.14"
    # gain 0.86
  ,
  -- fx
  listen 1 $
  sometimesBy 0.4 ((density 24) . (# rel "0.02 0.2 0.15 0.01")) $
  foldEvery [3, 5] (0.5 ~>) $
  degradeBy 0.8 $
  s "trp4_fx:8(5, 4, 2)"
    # gain 0.58
  ,
  -- cloche folle
  listen 1 $
  sometimesBy 0.2 (fast 2) $
  whenmod 5 3 (const $ s "~") $
  s "trp3_fx:2*2"
    # rel 2
    # gain 0.72
] # cps 0.2

d2 silence

d3 $ somecyclesBy 0.18 ((# squiz "2 4 10") . (# accelerate "1.87 2.54 <1.2 3.12>") . (# gain 0.72)) $
stack [
  -- ambi
  listen 1 $
  whenmod 6 4 ((struct (binaryN 7 29)) . (# cut 1)) $
  superimpose (loopAt 1) $
  s "{trp1_fx:26}%1.75"
    # speed 0.97
    # end "0.7 0.8 0.3 0.2 0.01 0.04 0.6"
    # room "0.1 0.3 0.24"
    # size "0.03 0.07 0.2 0.36"
    # gain 0.76
  ,
  -- kick
  listen 1 $
  whenmod 5 3 (# cutoff (range 237 6554 $ fast 2.5 square)) $
  every 12 (slow 2) $
  every 3 (0.25 ~>) $
  every 2 (1.5 <~) $
  fix (# gain (0.92*1)) (s "trp3_8:1") $
  s "{[~ trp1_k:8 _ trp3_8:4 _, ~ trp1_k:31 _]}%3.5"
    # cut 1
    # gain 1
  ,
  -- voice
  listen 1 $
  every 5 (stutWith 3 (1/32) (|* speed 0.6)) $
  (0.75 <~) $
  s "{trp2_fx:10 ~ trp2_fx:8, ~ trp2_fx:8}%1.75"
    # size "0.2 0.4 0.02 0.6"
    # room "0.1 0.5 0.03"
    # gain 0.65
  ,
  -- hihat
  listen 1 $
  sometimesBy 0.3 (superimpose ((0.75 ~>) . (# s "{[~ trp1_h:16 ~, trp1_h:16*3 _, trp1_h:16 ~ trp1_h:16*2 _ trp1_h:16*2]}%1.75") . (within (0.2, 0.8) (rev)))) $
  s "{[~ trp1_h:16 ~ trp1_h:16*3 _, trp1_h:16 ~ trp1_h:16*2 _ trp1_h:16*2]}%1.75"
    # pan (range 0.55 1 $ fast 3 cosine) -- 0.75
    # rel 0.0098
    # gain 0.88
  ,
  -- nappe
  listen 1 $
  whenmod 5 3 ((degradeBy 0.3) . (fast "2 0.7 0.4") . (spin "3 1.8 0.21")) $
  sometimesBy 0.65 (degradeBy 0.8) $
  s "{~ atm ~*5}%3.5"
    # att 1.32
    # rel 3.7
    # gain 0.65
] # cps 0.27

d3 silence

d4 $ whenmod 9 7 ((hurry "0.5 1.4 3 1.6 0.3") . (# binshift "0.2 0.7 0.52 0.34") . (# gain 0.7)) $
stack [
  -- nappe
  listen 1 $
  every 4 (# speed "0.2 0.4 2.3") $
  whenmod 5 4 (fast "2 1.7 1.9 4") $
  s "trp2_fx:10"
    # speed 0.1
    # cut "1 0"
    # gain 0.65
  ,
  -- perc
  listen 1 $
  s "~ _ tempp:1"
    # gain 1
  ,
  -- noise
  listen 1 $
  whenmod 6 5 ((0.5 ~>) . (slow "2 1.8") . (# fshift "200 609 7341 509") . (# fshiftphase "3 0.2 0.5 4")) $
  slow 2 $
  every 5 rev $
  fix (# gain 0.48) (s "trp4_fx:1") $
  s "trp4_fx:1 _ ~ trp3_fx:22 _"
    # att "0.01 2 1.8 0.3 1.4 0.23"
    # rel "0.9 1.4 2.3 2.1 0.83"
    # cut "1 0 1 0 0"
    # gain 0.63
  ,
  -- kick
  listen 1 $
  whenmod 7 5 ((hurry "0.3 0.2 1.7") . (density "<2 1.5>") . (# gain 0.9)) $
  every 3 (wchoose [(0.25, 0.6), (0.5, 0.4)] <~) $
  fix (# gain 0.89) (s "trp2_b:1") $
  fix (# gain 0.87) (s "dgk:6") $
  s "[[dgk:6 ~ dgk:2] _ trp2_b:5 ~, ~ [tempk:5 ~] trp2_b ~, trp2_b:1 tempk:5]"
    # cut 2
    # gain 0.96
  ,
  -- snare
  listen 1 $
  every 4 ((fast "<1.42 0.2>") . (randslice "<32 92> 28")) $
  swingBy (1/6) 4 $
  fix (# pan 0.6) (s "claps:1") $
  s "[~ claps:1 [trp2_p:6 claps:19] ~]"
    # octer "1 1 2 1"
    # octersub 3
    # octersubsub 6
    # rel 0.34
    # gain 0.66
  ,
  -- hihat
  listen 1 $
  whenmod 7 5 (degradeBy 0.4) $
  every 5 (superimpose rev) $
  every 4 palindrome $
  every 3 (0.75 ~>) $
  ghost $
  s "[dgh:2 dgh:4*2 dgh:6 dgh:4 dgh:6*2]*2"
    # rel "0.2 0.01 0.24 0.015 0.1 0.02"
    # pan (range 0 1 $ fast 8 rand)
    # gain 0.57
] # cps 0.7

d4 silence

d5 $ whenmod 10 8 ((scramble "2 4 8") . (hurry (fromTo 2 0.5)). (# gain 0.78)) $
stack [
  -- kick
  listen 1 $
  every 4 ((spin "0.5 <0.25 0.125>") . (# scram "<0.62 0.54> <0.76 0.83>") . (# gain 0.6)) $
  every 5 ((fast "1 <4 0.5>") . rev) $
  fix (# binshift 0.2) (s "ek") $
  fix (# gain 0.99) (s "trp2_b:2") $
  s "[trp2_b:2 _ ~ ek [trp2_b:7 ek:7]]"
    # cut 1
    # gain 1.1
  ,
  -- snare
  listen 1 $
  sometimesBy 0.32 (within (0.25, 0.75) (hurry "4 2 3")) $
  every 4 (0.125 ~>) $
  swingBy (1/8) "0.3 <0.15 0.6>" $
  ghost' 0.23 $
  s "[~ trp2_p:18] _ ~"
    # gain 0.79
  ,
  -- claps
  listen 1 $
  every 4 (stutWith 6 (1/"<8 16>") (|* binshift 0.5)) $
  every 4 (0.5 <~) $
  s "~ ugclap:17"
    # shape 0.3
    # gain 0.68
  ,
  -- hihat
  listen 1 $
  loopAt 1 $
  s "trp2_fx:5*4"
   # hpf 560
   # lpf 687
   # gain 0.69
  ,
  -- ambi
  listen 1 $
  someCyclesBy 0.4 (const $ s "~") $
  fastCat [
    (s "pl:27/4" # speed 0.4 # gain 0.67),
    (
      s "sphere:1"
        # speed 1.2
        # rel "0.9 1.4"
        # cut (wchoose[(1, 0.6), (0, 0.4)])
        # gain 0.76
    )
  ]
] # cps 0.61

d5 silence

d6 $ whenmod 16 14 ((scramble "6 2 4") . (# cut 2) . (# smear "0.2 0.5 0.9")) $
stack [
  -- nappe
  listen 1 $
  every 4 ((hurry "<0.7 3> 6") . (# gain 0.6)) $
  fast "<2 3>" $
  s "ade:9 _"
    # speed "<0.58 0.59>"
    # gain 0.67
  ,
  -- ambi
  listen 1 $
  every 8 ((# scram "1.3 <0.3 1.8>") . palindrome) $
  s "<af:3 af:5 af:12>"
    # speed "0.8 0.7 0.4"
    # phasdp "0.6 0.2 0.8"
    # phaserrate "0.4 1.2 0.2 0.9"
    # gain 0.8
  ,
  -- noise
  listen 1 $
  s "pss/<1 2>"
    # gain 1.4
  ,
  -- snare
  listen 1 $
  every 4 ((within (0.7, 1) (density 4)) . (0.125 ~>)) $
  s "~*2 ag:8"
    # note (scale "minor" $ "<8 9 14>")
    # gain 0.98
  ,
  -- kick1
  listen 1 $
  whenmod 4 3 (hurry "2 <3 4> 0.8") $
  every 2 (within (0.5, 1) (# start 2)) $
  fast "8 14 16" $
  s "~ ai:2"
    # start 1
    # rel "0.01 0.3 0.02"
    # gain 0.84
  ,
  -- kick2
  listen 1 $
  every 4 (within (0, 0.75) (fast 3)) $
  s "d8k:12 dgk:5 d8k:13*2"
    # hpf 80
    # gain 1
] # cps 0.46

d6 silence

d7 $ whenmod 24 22 ((chop "4 <8 32>") . rev . (# binshift "2 0.9 0.4 1.8")) $
stack [
  -- kick
  listen 1 $
  whenmod 8 7 ((degradeBy 0.3) . (fast 2)) $
  every 3 (degradeBy 0.34) $
  fix ((# speed 4) . (# gain 0.785)) (s "trp2_k:28") $
  s "bf:5 ~ [trp2_k:28 trp1_8:1] bf:5 <~ bf:9>"
    # shape 0.21
    # cut 1
    # gain 0.92
  ,
  -- melo
  listen 1 $
  whenmod 6 5 ((chooseBy "0.5 0.25 0.25" [0.25, 0.75, 0.125]) ~>) $
  sometimesBy 0.33 ((# accelerate (perlin2 0.3)) . (# hpf 240)) $
  every 4 (slow 4) $
  s "~@2 bh:6 _ bk/2"
    # binshift 1.1
    # size "<0 0.02 0 0.18 0.1 0>"
    # room "<0.2 0 0.1 0 0.15 0.3 0>"
    # speed 0.97
    # gain 0.76
  ,
  -- hihat
  listen 1 $
  sometimesBy 0.3 ((fastRepeatCycles 3) . (rot (slow 1.3 (irand 8)))) $
  every 2 (0.25 ~>) $
  fix (# gain 0.76) (s "bm:9") $
  s "~@2 <bm:7 bm:11 bm:9> brok:16 ~"
    # shape 0.24
    # gain 0.9
  ,
  -- snare
  listen 1 $
  sometimesBy 0.17 (superimpose (hurry "1.2 3 7 9 11")) $
  whenmod 4 3 ((loopAt "2 4 8") . (fast "<0.25 0.75>")) $
  every 4 (fix (0.25 <~) (s "bs:1")) $
  s "~ bs:1@3 bs:4/2"
    # binshift "0.6 0.8 1.2 0.93"
    # gain 0.91
  ,
  -- flute
  listen 0 $
  fast "<1 2 4>" $
  s "[trp2_h:15 trp3_fx _] trp3_fx"
    # speed 0.47
    # cut 1
    # gain 0.76
  ,
  -- nappe
  listen 1 $
  whenmod 11 10 ((fastAppend (s "trp1_fx:18 _ trp1_fx:18" # pan 0.3 # speed "0.67 <0.69 ~>" # gain 0.77)) . (# gate "0.2 2 0.4 1")) $
  every 16 (# begin (range 0 1 $ fast 2 square)) $
  slow 4 $
  s "trp1_fx:14"
    # begin "0.02 0.04 0.1"
    # speed 0.4
    # hpf 430
    # cut "<2 3 3>"
    # gain 0.67
] # cps 1.6

d7 silence

d8 $ whenmod 22 21 ((slow "4 [2 1.4]") . (# binshift "0.2 0.9") . (# lpf "[2000 1000] 500 [400 300]")) $
stack [
  --  kick1
  listen 1 $
  whenmod 17 16 ((gap "4 16 32") . (fast "2 8 5")) $
  every 16 (zoom (0.25, 0.75) . (# cut 1)) $
  fix ((# end 0.64) . (# cut 1)) (s "lmg_r:1") $
  fix (# speed 1.5) (s "lmg_k:12") $
  -- s "[~@2 <lmg_k:12 ~ lmg_r:7> _ <lmg_d lmg_d:2 lmg_d:10 lmg_d:14>]/2"
  s "[~@2 <lmg_k:12 ~ lmg_r:1> _ <lmg_d lmg_k:4 lmg_d:10 lmg_k:14>]/2"
    # cutoff 1205
    # triode 0.4
    # hpf 140
    # gain 1
  ,
  -- kick2
  listen 1 $
  whenmod 7 6 ((scramble "<14 48> 12") . (zoom (0, 0.5))) $
  every 3 rev $
  fix ((# gain 0.76) . (# binshift 0.4)) (s "lmg_k:22") $
  fix (# gain 0.96) (s "lmg_k:4") $
  s "[~ [<[~ lmg_k:4@3] lmg_k:11> lmg_k:9] bf:9 <lmg_k:22 lmg_k:21>]"
    # cut 1
    # gain 1
  ,
  -- noise
  listen 1 $
  every 4 (hurry "0.2 0.5") $
  every 2 (slow "2 4") $
  s "[~ lmg_m:8 _ <lmg_m:8 [~ lmg_d:9]> _]"
    # cut 1
    # gain 0.7
  ,
  -- snare
  listen 1 $
  fix (# gain 1.15) (s "hbg_b") $
  s "<hbg_k:1 ~> hbg_b@3"
    # cut 1
    # gain 1
  ,
  -- hihat
  listen 1 $
  every 3 (palindrome) $
  within (0.5, 1) (ghost' 0.4) $
  swingBy "0.5 2 0.75" (1/8) $
  s "{lmg_h:2*4}%<2 0.5 1.5>"
    # shape 0.24
    # rel "0.02 0.04 0.06 0.03 0.02 0.08 0.012 0.03 0.05"
    # gain 0.7
  ,
  -- ambi
  listen 1 $
  whenmod 14 13 (loopAt "2 1 4") $
  sometimesBy 0.4 ((# gate "0.3 1 0.8 0.21 0.4") . (gap "2 4 16 32") . (hurry "2 6 0.4")) $
  every 8 (superimpose (wchoose [(0.25, 0.5), (0.75, 0.5)] ~>)) $
  s "[~@6 [lmg_r:8 ~]]/2"
    # speed 0.6
    # hpf 320
    # resonance 0.6
    # lpf "2600 12000 1200 340"
    # end 0.54
    # gain 0.7
] # cps 1.6

d8 silence

d9 $ whenmod 15 14 (
  (iter "<2.5 5>") .
  (
    ifp ((== 0) . (flip mod 2))
    (degradeBy 0.67) -- even cycles
    ((slow "2 6 4 5") . (hurry "0.6 0.4") . (densityGap "4 6 8")) -- odd cycles
  )
) $
stack [
  -- kick
  listen 1 $
  sometimesBy 0.13 (degradeBy 0.4) $
  whenmod 9 7 (# hpf "375 680 2210") $
  every 8 (within (0.15, 0.75) ((fast "2 4") . (hurry 0.8) . (# binshift "0.21 0.25 0.12"))) $
  fix (# gain 0.89) (s "ak") $
  fix ((# att 0.12) . (# rel 1.9) . (# gain 1.2)) (s "d8k:7") $
  s "{~ <ak:3 ~> [ak:1 _ d8k:7] ~ <~ d8k:7>}%5"
    # shape 0.24
    # hpf 78
    # gain 0.8
  ,
  -- snare1
  listen 1 $
  someCyclesBy 0.3 (superimpose (hurry "1.4 5 0.7 2.4")) $
  whenmod 8 7 (# speed "0.7 0.3 1.5") $
  every 3 (fastAppend (s "")) $
  ghost' 0.42 $
  s "ap:1(2, 5, <2 1>)"
    # gain 0.78
  ,
  -- snare2
  listen 1 $
  s "[31 31:11 31:14/2]/2"
    # speed 0.7
    # gain 0.67
  ,
  -- hihat
  listen 1 $
  whenmod 5 3 (fastAppend (s "")) $
  every 3 palindrome $
  s "[dgh:1 dgh:2 dgh:6 ~ dgh:2]"
    # rel "0.2 0.4 0.01 0.2 0.02 0.004"
    # gain 0.76
  ,
  -- nappe
  listen 1 $
  someCyclesBy 0.42 (const $ s "") $
  every 4 ((0.75 ~>) . (hurry 0.8)) $
  s "atm/2"
    # begin 0.2
    # end 0.3
    # speed 0.7
    # hpf 90
    # gain 0.7
] # cps 1.4

d9 silence

hush
