resetCycles

d1 $ stack [ -- % 7
  -- kick1
  listen (cF 1 "87") $
  every 4 (# freq2 63) $
  slow 2 $
  s "benjolisSd benjolisSd@2.5"
    # amp 0.13
    # sustain 1
    # fadeTime 0.01
    # freq1 37
    # freq2 39
    # scaler 1
    # rungler1 2.78
    # rungler2 0.74
    # runglerFilt 2.4
    # filtFreq 32
    # rq 0.02
    # filterType 0
    # outSignal 6
    # hpf 60
    # gain 0.75
    # orbit 1
  ,
  -- kick2
  listen (cF 1 "88") $
  whenmod 10 8 ((# curve "12 <22 9 -53>") . (# envpL2 "42 24")) $
  every 8 (bite 7 "2 5 6 1 0 3 4") $
  s "kick_oto309BrSd(3, 7, <3 8>)"
    # amp 0.4
    # sustain 1
    # envpL1 110
    # envpL2 59
    # envpL3 29
    # envpT1 0.01
    # envpT2 0.2
    # envL1 0.5
    # envL2 1
    # envL3 0.5
    # envL4 0
    # envT1 0.005
    # envT2 0.058
    # envT3 0.261
    # curve "-4"
    # filterHarmonic "<1.5 3 1 13.2>"
    # preamp 1.25
    # pulseAmp 0.5
    # noiseAmp 1
    # sineAmp 1.2
    # gain 0.98
    # orbit 1
  ,
  -- kick3
  listen (cF 1 "89") $
  every 8 (density 1.2) $
  s "snarenewSd(2, 7, 9)"
    # amp 1.4
    # sustain 1
    # release 1
    # tu 1.16
    # envpL1 20
    # envpL2 96.8
    # envpL3 29
    # envpT1 0.002
    # envpT2 0.025
    # curvep "-4"
    # envL1 0
    # envL2 3.33
    # envL3 4.39
    # envL4 0
    # envT1 0.01
    # envT2 0.06
    # envT3 0.8
    # curve "-4"
    # mixNoise 0
    # hpFreq 100
    # rqhpf 1.2
    # freq1bpf 33
    # freq2bpf 3594
    # rq1bpf 0.65
    # rq2bpf 1
    # lpf 12000
    # rqlpf 0.8
    # mixBpf 0.22
    # gain 1
    # orbit 1
  ,
  -- noise
  listen (cF 1 "90") $
  somecyclesBy 0.14 (zoom (3/7, 4/7)) $
  every 8 rev $
  s "~@1.5 bytebeatsSd*2 [~ bytebeatsSd]"
    # amp 0.2
    # sustain 1
    # release "<0.3 0.4 0.1>"
    # envL1 0
    # envL2 "0 2"
    # envL3 0.2
    # envL4 "3.2 2 0"
    # envL5 0
    # envT1 "0.24 0.03 0.13"
    # envT2 0
    # envT3 0.13
    # envT4 0.29
    # curve1 "-60 0"
    # curve2 0
    # curve3 "-18.71 2 40"
    # curve4 "-9.91 42"
    # counterFreq 0.9
    # counterMul 0.9
    # counterAdd 3.5
    # srDiv 0.1
    # frq "27 31 234"
    # pan (range 0.35 0.65 $ slow "<4 2.5>" cosine)
    # gain 1
  ,
  -- snare
  listen (cF 1 "91") $
  s "hatenSd*7"
    # amp 0.41
    # sustain 0.45
    # envL1 0
    # envL2 3
    # envL3 0
    # envL4 5
    # envT1 0
    # envT2 0.2
    # randFreq 1
    # randAmt 0.5
    # envT3 0.9
    # envT4 0.03
    # mixNoise 0.5
    # sinFreq 200
    # mixSaw 0.5
    # sawFreq 0
    # hpfreq 400
    # hprq "0.01 0.2"
    # gain 1
  ,
  -- hi1
  listen (cF 1 "92") $
  s "hatenSd*7"
    # amp 0.41
    # envL1 0
    # envL2 3
    # envL3 0
    # envL4 5
    # envT1 0
    # envT2 0.03
    # randFreq 158.2
    # randAmt 1.11
    # envT3 0.01
    # envT4 0
    # mixNoise 0.71
    # sinFreq 8948
    # mixSaw 0.05
    # sawFreq 14229
    # hpfreq "14069 400"
    # hprq "0.01 0.2"
    # gain 0.91
  ,
  -- hi2
  listen (cF 1 "93") $
  s "haten1Sd(4, 7, <4 5 9>)"
    # amp 0.06
    # envL1 4.39
    # envL2 0
    # envL3 1.44
    # envL4 1.62
    # envL5 2.53
    # envT1 0
    # envT2 0.05
    # randFreq 111.4
    # randAmt 1
    # envT3 0.1
    # envT4 0.09
    # curve 49.16
    # mixNoise 0
    # sinFreq 9008
    # sinAmp 0.26
    # fsinFreq 9005
    # fsinAmp 0.26
    # mixSaw 0.11
    # sawFreq 14012
    # hpfreq 14069
    # hprq 0
    # gain 1
  ,
  -- bass
  listen (cF 0 "94") $
  s "~@1 kickbassSd@2.5"
    # level 1
    # attack 0.0001
    # sustain 2
    # release 1.4
    # fratio 0.48
    # noise 5
    # freq1 20
    # freq2 120
    # freq3 22
    # dc 0.82
    # aamp1 0
    # aamp2 1
    # aamp3 0.3
    # aamp4 1
    # curve1 8.86
    # curve2 "-42.29"
    # curve3 "-2.67"
    # famp1 0.07
    # famp2 0.49
    # famp3 0.76
    # famp4 0
    # p1 0.12
    # oamp 0.65
    # owhich2 1
    # ochoose 0
    # filter 256
    # gain 1
] # cps 1.48

d1 silence

d2 $ stack [
  -- kick1
  listen (cF 1 "87") $
  s "technokickSd"
    # amp 0.5
    # atk 0.01
    # rls 1.84
    # freq 65.76
    # dcy 0.28
    # click 0.008
    # damp 0.6
    # gain 1
] # cps 0.38

d2 silence

d3 $
whenmod 18 16 (
  (spread ($) [slow 2, palindrome, rev, degradeBy 0.25]) .
  (# room 0.1) .
  (# size 0.14)
) $
stack [ -- %7
  -- kick1
  listen 1 $
  sometimesBy 0.3 (# envT2 "[0.25 0.17]") $
  whenmod 12 10 (degradeBy 0.6) $
  whenmod 7 5 ((# envT1 "0.001 0.002 0.01") . (# envT2 "0.1 0.3 0.7") . (# sweep1 34)) $
  every 8 ((0.5 <~) . rev) $
  swingBy 1.25 (1/24) $
  s "[IkedaBassSd <IkedaBassSd [~ IkedaBassSd]> ~ IkedaBassSd _ IkedaBassSd ~]"
    # sustain 1
    # amp 2.3
    # envL1 0
    # envL2 0.25
    # envL3 0.4
    # envL4 0
    # envT1 0.01
    # envT2 0.2
    # envT3 0.08
    # envCurve "-5"
    # freq 0
    # sweep1 32.1
    # sweep2 168.3
    # vol1 2
    # vol2 0.09
    # hpf 102
    # gain 1
  ,
  -- kick2
  listen 1 $
  every 3 (within (0.5, 1) (fast 2)) $
  s "kick2newSd(<5 2>, 7, <2 5 6>)"
    # amp 1.9
    # gain 1
  ,
  -- hihat
  listen 1 $
  swingBy 0.75 (1/6) $
  whenmod 6 5 ((# rf1Freq 845) . (# rf2Freq 12345) . (# rf1Rq 0.15) . (# rf2Rq 0.3)) $
  every 3 (within (0.25, 0.5) ((density "2 4 12") . (ghost' 0.5))) $
  every 4 (const $ "haty48Sd(3, 14, <2 3 4>)" # amp 0.7) $
  s "{[haty48Sd ~, ~ <haty48Sd ~ haty48Sd haty48Sd>]}%7"
    # amp 0.7
    # envaT1 "0 0.01 0.00001 0.01 0.008 0 0.02"
    # lpf 11000
    # pan (range 0 1 $ fast "<2 3>" rand)
    # gain 1.1
    # orbit 3
  ,
  -- cymbal
  listen 1 $
  whenmod 9 7 (spread ($) [rev, palindrome, fast 2]) $
  s "{~ cymnew1Sd*<3.5 1.75 2>}%<7 3.5>"
    # amp 0.25
    # att "0.0001 0.01 0.1 0.012 0.001"
    # gain 1
    # orbit 3
  ,
  -- noise
  listen 1 $
  sometimesBy 0.17 (const $ s "~") $
  every 4 (# mFrq (range 0.0 0.09 $ slow 2 perlin)) $
  s "{feedbackOsc _ feedbackOsc*2}%3.5"
    # attack 0.1
    # release 1.4
    # mFrq 0.02
    # mFB "<1.4 0.9>"
    # freq "179 11000 230 1500 42"
    # fB "0.99 0.1 4 0.9"
    # width "0.1 0.2 0.6"
    # ffreq "65 2346 11786 63"
    # rq 0.2
    # gain 0.74
  ,
  -- ambi
  listen 0 $
  whenmod 12 10 (const $ s "~") $
  somecyclesBy 0.25 (densityGap "2 <0.5 6>") $
  every "<8 16>" ((# freq 615) . (# hpf 1943)) $
  s "ShaiSd/2"
    # amp 0.22
    # hpf 340
    # cut 1
    # gain 1
    # orbit 3
] # cps 0.88

d3 silence

d4 $ whenmod 19 17 (
  within (2/5, 4/5) (
    (# binshift "0.3 0.1 0.08 0.4") .
    (slow "[2 4]")
  )
) $
stack [ -- %5
    -- bass
    listen 1 $
    sometimesBy 0.25 (const $ s "~") $
    whenmod 6 5 (-| tu (range 0 2 $ slow 2 sine)) $
    (wchoose [(1, 0.5), (0.75, 0.5)] <~) $
    s "~@3 <kick3Sd@2 ~@2> ~"
      # amp 0.99
      # atk 0.1
      # rls 1.2
      # att 0.01
      # decay 1
      # sustain 1
      # rel 2
      # hpf 40
      # tu 1
      # gain 1
    ,
    -- kick
    listen 1 $
    whenmod 9 8 ((# sinFb 12) . (# sinDecDiv "12 18.8")) $
    whenmod 8 6 ((# sawFreq "43 200") . (# envfL4 "21 42 54")) $
    every 4 (within (0, 1/5) (# nudge 0.002)) $
    every 2 (0.5 <~) $
    s "[[~ ringkickSd _ ringkickSd _] <ringkickSd ~ ringkickSd>, ~ _ <~ ringkickSd> ~ <ringkickSd [~@2 ringkickSd]>]"
      # amp 0.98
      # dcy 1.8
      # att 0.01
      # decay 1
      # sustain 1
      # rel 2
      # lpfFreq 13760
      # freq "26 42 26"
      # envfL1 0
      # envfL2 6946.9
      # envfL3 66.2
      # envfL4 20
      # envfL5 0
      # envfT1 0.0002
      # envfT2 0.0001
      # envfT3 0.3
      # envfT4 0.53
      # curve "-4.92"
      # envfAmt 0.32
      # lfnFrq 59.2
      # lfnAmt 0
      # ringAmp 0.1
      # sawFreq 22
      # sawPh 6.19
      # sawDecDiv 10
      # sawAmp 0.16
      # sinFreq 10010
      # sinFb 9
      # sinDecDiv 188
      # sinAmp 0.29
      # gain 0.94
    ,
    -- noise1
    listen 1 $
    every 8 ((density 1.15) . (# fm2 0.1)) $
    s "{~ complexoscSd*2 complexoscSd ~ complexoscSd ~}%5"
      # amp 0.2
      # feedBack "0.43 <0.42 0.41>"
      # envL1 0
      # envL2 2
      # envL3 0
      # envL4 0.99
      # envT1 "2 0.64"
      # envT2 "0.52 2"
      # envT3 "0.19 1 2.6"
      # envCurve "-7.35 -21"
      # freq1 "1"
      # fm1 5000
      # pm1 8.94
      # amp1 0.8
      # ring1 3.62
      # offset1 "0 0.23 0.62"
      # freq2 "32.09 12.3"
      # fm2 0
      # pm2 0.8
      # amp2 0.27
      # ring2 "1 0.03 0.07 0 0.01"
      # offset2 "-1.96"
      # fold 0.9
      # wrap 0.82
      # switch 2
      # gain 0.89
    ,
    -- noise2
    listen 1 $
    sometimesBy 0.34 (const $ s "~") $
    s "haten1Sd haten1Sd ~ haten1Sd ~"
      # amp 0.2
      # envT1 "0.2 0.1"
      # pan ((0.25 <~) $ range 0 1 $ slow 2 rand)
      # gain 0.97
      # orbit 4
    ,
    -- hihat
    listen 1 $
    whenmod 7 6 ((degradeBy 0.6) . (# binshift 0.5)) $
    swingBy 0.2 (1/3) $
    s "~ kick3AwSd <kick3AwSd ~> [kick3AwSd _ <kick3AwSd ~> _] kick3AwSd"
      # amp 0.7
      # envL1 0
      # envL2 2.21
      # envL3 0
      # envL4 5
      # attack 0
      # decay 0.3
      # release 0.14
      # punch 0.37
      # envfLev1 369
      # envfLev2 19951
      # envfTime 0.01
      # envfCurve "-90.47"
      # pan (range 0 1 $ rand)
      # gain 0.97
      # orbit 4
    ,
    -- cymbal
    listen 1 $
    whenmod 8 6 (
      (# envC1 "-12 -32 -3 67") .
      (# envC2 "32 32 -3 67") .
      (# envC3 "12 67 -2 -3")
    ) $
    whenmod 5 4 (within (2/5, 4/5) rev) $
    every 4 (0.5 <~) $
    s "<[cym1Sd ~ cym1Sd] ~ [~ cym1Sd]> cym1Sd _ cym1Sd*2 cym1Sd _ cym1Sd cym1Sd _ ~ cym1Sd"
      # amp 0.23
      # envL1 "0.76 0 0.2"
      # envL2 0
      # envL3 0.32
      # envL4 0.72
      # envT1 0.11
      # envT2 0.13
      # envT3 0.04
      # envC1 "-4.1"
      # envC2 "20"
      # envC3 "-40"
      # tu 0.91 -- 0.56
      # pan ((0.75 ~>) $ range 0.25 0.75 $ slow 2 tri)
      # gain 0.97
    ,
    -- flute
    listen 0 $
    sometimesBy 0.42 (const $ s "~") $
    every 4 (within (0, 1/5) (# freq 120)) $
    slow 2 $
    s "[waveguideFluteSd _ waveguideFluteSd@3]"
      # amp 0.2
      # freq 320
      # gain 0.97
      # orbit 4
    ,
    -- nappe
    listen 1 $
    sometimesBy 0.28 (const $ s "~") $
    whenmod 6 5 (wchoose [(1, 0.5), (0.5, 0.25), (2 ,0.25)] ~>) $
    every 16 (# tu "1.6") $
    slow 4 $
    s "corman1Sd"
      # amp 0.26
      # tu 1
      # attack 2
      # release 16
      # gain 1
      # orbit 4
] # cps 0.78

d4 silence

d5 $
sometimesBy "<0.05 0.1 0.2>" (
  (densityGap "6 2 4") .
  (scramble "<5 10 15>") .
  (# binshift "0.02 0.1 0.4")
) $
stack [ -- %5
  -- kick1
  listen 1  $
  someCyclesBy 0.15 (fastAppend (s "<~ ~@2>")) $
  whenmod 9 8 (# curveBpf "-23 -12 3") $
  every 8 ((# timeScaleBpf "2 1.2") . rev) $
  every 2 (within (2/5, 3/5) (# nudge 0.1)) $
  -- s "drumkickSd(3, 5, <7 9 5>)"
  s "drumkickSd(4, 5, <1 6 5>)"
    # amp 0.7
    # attack 0.15
    # decay 1
    # sustain 1
    # release 0.2
    # curve "-39.7"
    # attSinFreq 0.01
    # relSinFreq 1.12
    # curveSinFreq "-60"
    # levSin 0.26
    # attBpfFreq 0.02
    # relBpfFreq 0.3
    # timeScaleBpf 1.11
    # curveBpf "-200"
    # levBpf 0.18
    # levScaleBpf 6000
    # levBiasBpf 21.3
    # lineStartBpf 0.3
    # lineEndBpf 0
    # lineLevBpf 0.15
    # gain 0.98
  ,
  -- kick2
  listen 1 $
  whenmod 21 20 (# binshift 0.3) $
  swingBy 0.75 (1/4) $
  -- s "[[<snapkickSd ~> ~] <snapkickSd ~ [~@2 snapkickSd _]> _ ~ <[~ snapkickSd] [~ snapkickSd _]>]"
  s "{<~ snapkickSd> <snapkickSd ~> <~ [~ snapkickSd]> _ snapkickSd}%5"
    # amp 0.88
    # attack 0.001
    # decay 1
    # sustain 1
    # release 1
    # bdFrqL1 241
    # bdFrqL2 71
    # bdFrqL3 48.5
    # bdFrqT1 0.0001
    # bdFrqT2 7
    # bdFrqC "-48"
    # bdAmpAtt 0.0001
    # bdAmpSus 0.5
    # bdAmpRel 0.02
    # bdAmpLev 1.66
    # bdAmpCurve 47.4
    # popFrqSt 150
    # popFrqEnd 241
    # popFrqDur 4
    # popAmpAtt 0.2
    # popAmpSus 1
    # popAmpRel 4
    # popAmpLev 0.3
    # clkAmpAtt 0
    # clkAmpRel 0.01
    # clkAmpLev 0.79
    # clkAmpCurve "-14.9"
    # clkfFundFreq 910
    # clkfFormFreq 4760
    # clkfBwFreq 12110
    # clkLpfFreq 13140
    # hpf 100
    # gain 0.95
  ,
  -- snare
  listen 1 $
  someCyclesBy 0.5 (const $ s "~") $
  sometimesBy 0.19 (# nudge "0 0 0.1 0 0") $
  every 4 (0.5 <~) $
  (0.25 ~>) $
  s "{~ _ kraftySnareSd _ <~ kraftySnareSd>}%5"
    # amp 0.82
    # dec "0.03 0.02 0.04 0.06 0.034"
    # gain 1
    # orbit 5
  ,
  -- hihat
  listen 1 $
  sometimesBy "0.2 0.12 0.3" (# cvar "0.7 0.9 0.2") $
  whenmod 6 5 ((within (2/5, 3/5) (fast "[2 4]")) . (# bvar "0.9 2.58 4")) $
  every 4 ((wchoose [(1, 0.5), (0.5, 0.5)] <~) . (# env0T1 "0.2 0.18") . (# env0L2 "0.1 0.02")) $
  every 2 (# avar "0.02 0.03") $
  s "newNoise48(<3 4>, 5, <2 8 3 2>)"
    # amp 1
    # env0L1 0.35
    # env0L2 0
    # env0L3 2.68
    # env0L4 0
    # env0T1 0.12
    # env0T2 2.11
    # env0T3 0
    # env0T4 0
    # offset 0.79
    # timeScale 0.26
    # coeff 0.28
    # avar 0.05
    # bvar 3.8
    # cvar 0.84
    # dvar 2.54
    # xi 1
    # yi 0.07
    # hpf 563
    # gain 0.97
    # orbit 5
  ,
  -- clickhi
  listen 1 $
  whenmod 19 17 ((# sinFrq1 (range 20 14000 $ slow 2 sine)) . (# sinLev1 6.6)) $
  every 4 ((density 0.4) . (# mix 0.1)) $
  every 2 (within (3/5, 1) (fast 2)) $
  s "{[fabHiSd ~ [~ fabHiSd _ fabHiSd], ~ fabHiSd]}%1.25"
    # amp 0.2
    # wamp 0.84
    # envNatt 0
    # envNrel 0.26
    # wbpfFreq 3182
    # wbpfRq 1
    # sinFrq1 1365
    # sinFrq2 12423
    # sinPh1 0
    # sinPh2 0.02
    # sinLev1 14.13
    # sinLev2 5.56
    # envSatt 0.24
    # envSrel 0.2
    # mix 0.6
    # envL1 0
    # envL2 1
    # envL3 0.94
    # envT1 0.04
    # envT2 "0.02 0.06 0.01 0.018 0 0.02 0.06 0.01 0.018 3.11"
    # envT3 "0.07 0.01 0.07 0.002 0.03 0.007"
    # ffreq 10580
    # pan (range 0.25 0.85 $ fast 2 rand)
    # gain 0.9
    # orbit 5
  ,
  -- woody
  listen 1 $
  loopAt "5 2.5 1.125" $
  s "{bf:4}%1.125"
    # speed "-2 -3"
    # gain 0.7
    # orbit 5
] # cps 1.27

d5 silence

d6 $
whenmod 20 18 (
  (slow "1 2") .
  (degradeBy "0.3 <0.24 0.6> 0.12 0.07 0.2") .
  (off 1.125 ((slow "16 32") . (iter "<7 28> 14"))) .
  (splice 7 (segment "<<5 6> <4 5>>" (irand 7))) .
  (1 ~>)
) $
stack [ -- %7
  -- kick1
  listen (cF 1 "87") $
  slow 2 $
  someCyclesBy "<0.2 0.24 0.13>" (splice 7 (segment 7 (irand 7))) $
  whenmod 5 4 ((# freqenvL1 "222 812") . (# freqenvT1 "5 3")) $
  every 8 (# ampenvT2 "1.3 1.2") $
  s "[kicklaserbeamSd _] ~@2 [~ kicklaserbeamSd ~] ~ <kicklaserbeamSd [~ kicklaserbeamSd ~@2]> _"
    # freqenvL1 3.97
    # freqenvL2 5
    # freqenvL3 0
    # freqenvL4 2.97
    # freqenvT1 0.16
    # freqenvT2 0.07
    # freqenvT3 0.26
    # ampenvL1 1
    # ampenvL2 1
    # ampenvL3 0
    # ampenvL4 0
    # ampenvT1 0.02
    # ampenvT2 0.2
    # ampenvT3 0.1
    # hpfFreq 50
    # hpfRq 1
    # attack 0
    # sustain 1
    # release 1
    # gain 0.9
  ,
  -- kick2
  listen (cF 0 "88") $
  every 4 (within (2/7, 3/7) ((2/7) ~>)) $
  every 3 ((# enfL2 "341 732") . (# enfL3 "130 69") . (# enfT1 "<1 2>")) $
  ((1/14) <~) $
  s "~ _ kick808newSd@2 ~ <<[~ kick808newSd] [kick808newSd _]> ~> _"
    # amp 0.85
    # envL1 1.33
    # envL2 0.99
    # envL3 0
    # envT1 0.27
    # envT2 1
    # envCurve "-8"
    # enfL1 14235
    # enfL2 100
    # enfL3 30
    # enfT1 0.0001
    # enfT2 0.01
    # enfCurve "-4"
    # tu 2
    # sin2Frq 10
    # sin2Amp 48
    # hpf 80
    # gain 1
  ,
  -- kick3
  listen (cF 1 "89") $
  whenmod 7 6 ((# frqScale "21 18") . (# squiz "<1.4 0.012 0.008>") . (# amp 0.32)) $
  every 4 (# kharm1 "100 <3999 429>") $
  ((4/7) ~>) $
  s "~@4 kickParallaxSd _@2"
    # amp 0.4
    # envAmpAtt 0
    # envAmpRel 0.3
    # envFrqAtt 0
    # envFrqRel 0.02
    # kharm1 1
    # kharm2 2
    # kharm3 8544
    # kharm4 16451
    # kamp1 0.05
    # kamp2 0.05
    # kamp3 0.05
    # kamp4 0.08
    # kring1 0.18
    # kring2 3.16
    # kring3 0.06
    # kring4 0
    # frqScale 1
    # decScale 1
    # resoMix 0.5
    # gain 1
  ,
  -- click
  listen (cF 1 "90") $
  sometimesBy 0.12 (const $ "~") $
  every 3 (ghost' 0.125) $
  swingBy 0.14 (3/7) $
  s "kickParallaxSd*7"
    # amp "0.7 0.6 0.54 0.67 0.62 0.7 0.68"
    # envAmpAtt "0 0.01 0.02 0 0 0.001 0.002"
    # envAmpRel 0.01
    # envFrqAtt 0
    # envFrqRel 0.03
    # freq 15039
    # kharm1 20
    # kharm2 13544
    # kharm3 8241
    # kharm4 16451
    # kamp1 0.3
    # kamp2 0.05
    # kamp3 0.06
    # kamp4 0
    # kring1 0.18
    # kring2 3.16
    # kring3 0.06
    # kring4 0
    # frqScale 1
    # decScale 1
    # resoMix 0
    # gain 1.05
    # orbit 6
  ,
  -- cymbal
  listen (cF 1 "91") $
  someCyclesBy 0.36 (slow 0.5) $
  someCyclesBy 0.19 ((slow "<0.25 0.125>") . (chew 7 "6 4 5 7 0 2 3 1")) $
  every 8 rev $
  slow 4 $
  ((2/7) ~>) $
  s "<hat909Sd*3 ~> hat909Sd?0.6 _ <~ hat909Sd*2> _ ~@2"
    # amp 0.3
    # envL1 0
    # envL2 0.98
    # envL3 0.12
    # envL4 0.9
    # envT1 0.2
    # envT2 0.01
    # envT3 0.32
    # envCurve "-4"
    # gain 1
  ,
  -- breath
  listen (cF 1 "92") $
  ((1/7) ~>) $
  s "attBreathSd/2"
    # amp 3
    # attack 0.01
    # release 1.84
    # seqv1 0
    # seqv2 3.31
    # seqv3 4
    # seqv4 3.77
    # seqv5 4.01
    # seqFreq "0.08 0.16"
    # freqMin 250
    # freqMax 800
    # bwrMod "0.5 0.1 0.2"
    # gain 1
    # orbit 6
  ,
  -- snare
  listen (cF 1 "93") $
  sometimesBy 0.38 (const $ s "~") $
  every 8 (((4/7) ~>) . (# envT1 0.02) . (# envT2 0.05)) $
  ((1/7) <~) $
  s "jungleSnareSd/2"
    # amp 0.4
    # envL1 1
    # envL2 0
    # envL3 1
    # envL4 0
    # envT1 0.04
    # envT2 0.5
    # envT3 0.34
    # envCurve "-2"
    # envfL1 92.29
    # envfL2 295.44
    # envfL3 4962.07
    # envfL4 144.33
    # envfT1 0.03
    # envfT2 0
    # envfT3 0
    # envfCurve "-18"
    # envnAtt 0
    # envnRel 0.27
    # envnCurve "-2.45"
    # noiseAmp 0.08
    # tu 1 -- 1.43
    # kracter 5.38
    # hpfRq 1
    # lpfRq 0.5
    # gain 1
  ,
  -- clap
  listen (cF 1 "94") $
  whenmod 6 4 (|*| envaT2 "0.13 4 0.21") $
  every 4 palindrome $
  (1 ~>) $
  s "~ <t1kick2Sd ~ [~ t1kick2Sd]> ~ t1kick2Sd@0.5"
    # amp 0.64
    # envaT1 0.53
    # envaL1 1
    # envaT2 0.6
    # envaL2 1.85
    # envaT3 0.2
    # envaL3 0.5
    # envaT4 0.2
    # envaL4 0
    # envaCurve "-4"
    # envfT1 0
    # envfL1 9752
    # envfT2 0.002
    # envfL2 20
    # envfT3 0.1
    # envfL3 0
    # envfT4 1
    # envfL4 4
    # envfCurve "-4"
    # pitch 1.05
    # hpfFreq 597
    # hpfRq 1
    # verbMix 0.5
    # verbRoom 6.27
    # verbTime 4.75
    # verbDamp 0.65
    # gain 0.97
    # orbit 6
  ,
  -- ambi
  listen (cF 1 "48") $
  slow 8 $
  every 4 (bite 7 (segment 14 (irand 14))) $
  fix (# gain 0.85) (s "lmg_r:4") $
  s "lmg_d:7 _ <lmg_r:5 lmg_r:4> ~@0.5"
    # gain 0.98
    # orbit 6
] # cps 1.4

d6 silence

d7 $
someCyclesBy 0.08
((loopAt "1 0.5") . (chop "4 <8 2>")) $
whenmod 16 14
((# delayfb 0.6) . (# delayt "<q s 3q>") . (# delay 0.3) . (fast 2) . (iter' 4)) $
stack [ -- % 4
  -- kick1
  listen (cF 1 "87") $
  s "~@3 [IkedaBassSd ~ IkedaBassSd@0.5 ~@0.5]"
    # amp 1
    # sustain 1.2
    # envL1 0
    # envL2 0.25
    # envL3 0.4
    # envL4 0
    # envT1 0.01
    # envT2 0.21
    # envT3 0.08
    # envCurve "-5"
    # freq 10
    # sweep1 22.1
    # sweep2 168.3
    # vol1 2
    # vol2 0.09
    # hpf 80
    # gain 1.12
  ,
  -- kick2
  listen (cF 1 "88") $
  cat [
    (s "~ kickMistSd ~ <kickMistSd <[~ kickMistSd] ~>>"),
    (s "kickMistSd ~ <~ [kickMistSd ~@2]> ~")
  ]
    # level 1
    # sustain 2.3
    # release 1
    # tu 0.8
    # noise 1
    # env0L1 0
    # env0L2 1 -- 14
    # env0L3 0.29
    # env0L4 0
    # env0T1 0
    # env0T2 0.15
    # env0T3 8.26
    # curve0_1 "-4"
    # curve0_2 "-2"
    # curve0_3 "-4"
    # env1L1 7581.71
    # env1L2 65.26
    # env1L3 29
    # env1T1 "0.002 0.001 0.02 0.1"
    # env1T2 0.29
    # curve1_1 "-4"
    # curve1_2 "-5"
    # gain 0.68
  ,
  -- kick3
  listen (cF 1 "89") $
  sometimesBy 0.1 ((# bpeqamp1 "-14") . (# gain 0.9)) $
  every 8 ((# tu "<24 33>") . (# gain 0.86)) $
  cat [(s "kick2new(3, 5)"), (s "kick2new(2, 3, <2 4>)")]
    # amp 2
    # sustain 1.1
    # envfT1 0.002
    # envfT2 1
    # freq 42
    # tu 1.53
    # bpeqf1 981
    # bpeqrq1 0.41
    # bpeqamp1 "-54"
    # bpeqf2 800
    # bpeqrq2 10
    # bpeqamp2 "-6"
    # hpff 81
    # gain 0.97
  ,
  -- echo
  listen (cF 1 "90") $
  s "tweetFogAttackSd? ~ ! tweetFogAttackSd@0.5 _@0.5"
    # amp 1
    # attack 0.01
    # release 2.5
    # sigatt 0
    # sigdec 2.11
    # feedBack "0.04 0.04 0.025"
    # freq "1.42 1.03 0.91"
    # gain 0.87
    # orbit 7
  ,
  -- snare1
  listen (cF 1 "91") $
  whenmod 8 6 (# fm1 5000) $
  every 4 (# feedBack "0.3 0.2 1 0.4") $
  s "<complexoscSd*8 [complexoscSd@0.5 complexoscSd/2 complexoscSd*2 _]>"
    # amp 1
    # feedBack "0.3 1 0.2 1 0.4" -- 0.2
    # envL1 0
    # envL2 2
    # envL3 0
    # envL4 0.99
    # envT1 "<0.64 1.2>"
    # envT2 0.52
    # envT3 0.19
    # envCurve "-7.35"
    # freq1 2980
    # fm1 500
    # pm1 8.94
    # amp1 0.8
    # ring1 0.92 -- 1
    # offset1 "0 -6.2 0.23 7"
    # freq2 "32.09 12.3" -- 12.3
    # fm2 20
    # pm2 0.8
    # amp2 0.27 -- 0
    # ring2 "0.1 0.03 0.07 0 0.01" -- 1
    # offset2 "-1.96"
    # fold 1.9
    # wrap 0.82
    # switch 4
    # gain 0.65
    # orbit 7
  ,
  -- snare2
  listen (cF 1 "92") $
  every 4 (within (1/4, 1) (palindrome . (fast "<2 3>"))) $
  (0.25 ~>) $
  s "~ cymbalicMcldSd <cymbalicMcldSd ~ [~ cymbalicMcldSd@0.5]> _"
    # amp 0.5
    # sustain 2
    # attLowf 0.5
    # relLowf 5
    # lowNoiseLev 0.1
    # attHif 1
    # relHif 3
    # hiNoiseLev 0.1
    # attHi 1
    # relHi 2
    # hiLev 0.25
    # attTh 0.001
    # relTh "0.001 0.02 0.00"
    # freq1 460
    # freq2 540
    # freq3 13807
    # freq4 476
    # gain 0.8
    # orbit 7
  ,
  -- hihat
  listen (cF 1 "93") $
  sometimesBy 0.34 (ghost' 0.8) $
  swingBy 0.7 (1/4) $
  s "fabHi1Sd*8"
    # amp 0.12
    # wamp 1
    # envNatt 0
    # envNrel 0.105
    # wbpfFreq 6255
    # wbpfRq 1
    # sinFrq1 2120
    # sinFrq2 12423
    # sinPh1 0
    # sinPh2 0
    # sinLev1 5.56
    # sinLev2 15.25
    # envSatt "0 0.1 0.2 0.21"
    # envSrel 0.07
    # mix "-0.11"
    # envL1 0
    # envL2 1
    # envL3 1
    # envL4 0
    # envT1 "0.01 0"
    # envT2 0
    # envT3 0
    # ffreq 1600
    # pan (range 0 1 $ slow "<2 4 0.5>" cosine)
    # gain 1
    # orbit 7
  ,
  -- ambi
  listen (cF 1 "94") $
  s "talters1Sd talters1Sd@3"
    # amp 1
    # attack 0.01
    # release 9
    # feedBack 1.14
    # envL1 0
    # envL2 0
    # envL3 25.96
    # envL4 16
    # envT1 0.01
    # envT2 0.79
    # envT3 0.53
    # envCurve "-8.03"
    # decDens 0.2
    # decTimeFreq 10
    # decamp 794
    # gain 0.8
] # cps 1.04

d7 silence

d8 $
someCyclesBy 0.14
((# gain 0.88) . (# squiz "<0.6 1.3>") . (slow "[2 1] 2") . rev . (chop "<7 3.5 2 14>")) $
stack [ -- % 7
  -- noise
  listen (cF 1 "87") $
  -- sometimesBy 0.3 (const $ s "~") $
  someCyclesBy 0.27 (slow "<2 4>") $
  whenmod 18 17 (slice "2 3.5" "7 3.5") $
  every 8 rev $
  (0.75 <~) $
  s "snaremedSd snaremedSd@0.5 _ snaremedSd*3 ~@0.5 _@3"
    # level 1
    # noise 1
    # dc 1
    # env0L1 0.06
    # env0L2 0.46
    # env0L3 0.5
    # env0L4 0
    # atkEnv0 0.01
    # decEnv0 0.2
    # relEnv0 "0.26 0.26 0.79"
    # fratio 20
    # env1L1 120
    # env1L2 12
    # env1L3 26
    # env1T1 0.1
    # env1T2 0.2
    # curve1 "-12.69"
    # curve2 "-14 14"
    # curve3 14.59
    # phase 2.19
    # oamp 1.19
    # owhich2 0
    # ochoose "0 3 2 3 1 2"
    # orbit 8
    # gain 0.95
  ,
  -- kick1
  listen (cF 1 "88") $
  whenmod 18 17 (bite 7 "0 1 5 3 2 6 4") $
  every 8 ((# h1harmonic "32 1 27 2") . (bite 7 "0 1 3 5 2 4 6")) $
  every 4 (# h1freq "100 231 3298") $
  s "[kickBlocksSd ~ <kickBlocksSd*2 [~ kickBlocksSd]>] <kickBlocksSd ~> kickBlocksSd"
    # amp 0.74
    # sustain 1.1
    # curve "-10.92"
    # t1freq 64.6
    # t1harmonic 16
    # t1glide 0.15
    # t1att 0.08
    # t1rel 0.39
    # t1curve 12
    # t1del 0
    # t1amp 1
    # t2freq 207.4
    # t2harmonic 2
    # t2glide 0.01
    # t2att 0.01
    # t2rel 0.02
    # t2curve "-4.67"
    # t2del 0
    # t2amp 0
    # h1freq 482.9 -- 100
    # h1harmonic 123 -- 8
    # h1glide 0.21
    # h1rq 0.52
    # h1att 0.001
    # h1rel 0.02
    # h1curve "-4"
    # h1del 0
    # h1amp 1
    # h2freq 1320
    # h2harmonic 1
    # h2glide 0
    # h2att 0.003
    # h2rel 0.03
    # h2curve "-4"
    # h2del 0
    # h2amp 0.5
    # cfreq 6100
    # crq 1
    # camp 1.41
    # gain 0.97
  ,
  -- kick2
  listen (cF 1 "89") $
  whenmod 14 12 (# impfreq "4 <1 7>") $
  every 4 ((within (6/7, 1) (0.25 <~)) . (# coef2 "0.23 0.65")) $
  s "~@2 <tweetKickIntSd@0.5 ~@0.5> tweetKickIntSd*2"
    # amp 1
    # attack 0.01
    # release 2
    # impfreq 2
    # phRate 33.3
    # lagFreq 0.4
    # inAmt 61.2
    # coef1 0.99
    # coef2 0.18
    # gain 0.85
  ,
  -- woody
  listen (cF 1 "90") $
  s "~@0.5 <~ hbg_p:3 [~@2 hbg_p:3]> _@2"
    # orbit 8
    # gain 0.8
  ,
  -- hi
  listen (cF 1 "91") $
  someCyclesBy 0.5 (fast "[2 <0.5 1>] 2") $
  s "metroSd*7"
    # amp "0.9 0.6 0.8"
    # sustain 1.1
    # impFreq 1
    # theta "1.97 42.42 2"
    # rho "0.99"
    # filterfreq "1000 210 12000"
    # rq 1
    # pan (range 0.1 0.9 $ fast "<2 4 6>" sine)
    # orbit 8
    # gain 0.96
  ,
  -- cymbal
  listen (cF 0 "92") $
  sometimesBy 0.082 ((# envT1 "4 1 0.02 8") . (# gain 0.93)) $
  whenmod 8 6 (slice 14 "2 1 9 8 4 5 12 11 7 3 6 10") $
  someCyclesBy 0.9 ((fast 2) . (# envT3 "0.02 0.1")) $
  s "cymnew1Sd*3.5"
    # amp 0.3
    # envL1 1.9
    # envL2 0
    # envL3 0.7
    # envL4 0
    # envT1 0.12
    # envT2 0.02
    # envT3 "0.23 0.16 0.23"
    # curve "-5.02 -2.46 -5.02 -10 -2" -- "-8"
    # tu 6
    # pan (range 0.25 0.75 $ slow "<4 0.5 2>" sine)
    # orbit 8
    # gain 0.95
  ,
  -- ambi1
  listen (cF 1 "93") $
  someCyclesBy 0.42 (# tu 241) $
  s "[~@3 corman1Sd@4]/<7 3.5 7 14>"
    # amp 1
    # attack 1
    # decay 1
    # release 2
    # tu 193.68
    # dur "3.5 7 3.5 3.5 7 3.5"
    # orbit 8
    # gain 0.82
  ,
  -- ambi2
  listen (cF 1 "94") $
  fix (# gain 0.7) (s "lmg_r:2") $
  s "lmg_r:2 <~ lmg_d? ~> ~@1.5"
    # gain 1
] # cps 0.8

d8 silence

d9 $
someCyclesBy 0.2
(
  (# legato "1 0.5 2 4") .
  (# squiz "1 2 1.4") .
  (densityGap "<2 1> 1 2") .
  (# beaterAmp 0)
) $
sometimesBy 0.1 (append (s "~ trp2_k:11 drumkickSd@1.5")) $
stack [ -- % 7
  -- kick1
  listen (cF 1 "87") $
  snowball' 2 (+) ((0.25 <~) . (slow 2)) $
  s "~ drumkickSd drumkickSd _@0.5"
    # amp 0.4
    # attack 0.0001
    # sustain 1
    # release 0.79
    # curve 7.26
    # attSinFreq 0.0001
    # relSinFreq 0.58
    # curveSinFreq "5 -200"
    # levSin 0.05
    # attBpfFreq 0.36
    # relBpfFreq 0.91
    # timeScaleBpf 0.02
    # curveBpf 14
    # levBpf 0.03
    # levScaleBpf 2058
    # levBiasBpf 9
    # lineStartBpf 1
    # lineEndBpf 13
    # lineLevBpf 5
    # gain 0.458
  ,
  -- kick2
  listen (cF 1 "88") $
  whenmod 14 12 (# lpf "<3500 2590>") $
  someCyclesBy 0.16 ((# drumRel 0.1) . (# drumAtt 0.7)) $
  someCyclesBy 0.27 ((# beaterHarmonic "180 90") . (# beaterFreq "264 237")) $
  cat [s "sosKickSd(3, 7, <2 0>)", s "sosKickSd(<3 3.5>, 7, <1 0 2>)"]
    # amp 1
    # att 0.01
    # sustain 1
    # rel 2.63
    # subamp 1.54
    # drumAmp 1.38
    # beaterAmp 0.04
    # clickAmp 3.3
    # startsubfreq 166
    # endsubfreq 21
    # linesubdur 0.08
    # subdecay 0.68
    # sublowpass 500
    # drumFreq 33
    # drumHarmonic 2
    # drumSweep 1.34
    # drumAtt 0
    # drumRel 1.45
    # curve "-6.4"
    # drumFilter 247
    # modIndex 0
    # modFreq 0.01
    # beaterFreq 1001
    # beaterHarmonic 100
    # beaterSweep 0.97
    # noiseMod 3606
    # beaterL1 15.79
    # beaterL2 1
    # beaterL3 11.23 -- 2.4
    # beaterL4 0
    # beaterT1 0.01
    # beaterT2 "0.2 0.09 0.3"
    # beaterT3 0
    # clkffreq 4850
    # clkres 4
    # hpf 70
    # orbit 9
    # gain 0.88
  ,
  -- soft kick
  listen (cF 1 "89") $
  s "ambitekSd@2 ambitekSd@1.5"
    # amp 0.6
    # attack 0.06
    # sustain 1
    # release 0.83
    # envSL1 0
    # envSL2 0
    # envSL3 0.5
    # envSL4 0
    # envST1 0.01
    # envST2 "<0 0.6? 0>"
    # envST3 0
    # envSCurve "-4"
    # sawFreq 50
    # delTime 0 -- 0.00978
    # delDecay 0.53
    # brfRq 0
    # hpf 110
    # orbit 9
    # gain 0.97
  ,
  -- snare
  listen (cF 1 "90") $
  s "<~@2.25 ~@2> <clappingSd@1.25 clappingSd@1.5>"
    # amp 0.7
    # att 0
    # rel 0.03
    # attack 0.01
    # sustain 1.1
    # release 1
    # noiseAmp 1
    # filterfreq 529
    # rq 0.89
    # sinAmpStart 0.61
    # sinAmpEnd 0.01
    # sinAmpDur 0.74
    # lpfFreq 21
    # hpfFreq 306
    # delMix 1
    # delTimeL 0
    # delDecL 0.031
    # delTimeR 0
    # delDecR 0.06
    # gain 0.87
  ,
  -- hi
  listen (cF 1 "91") $
  every 3 (fast "2 2.5") $
  s "kick3AwSd(5, 7, <0 1>)"
    # amp 0.5
    # envL1 0
    # envL2 2.21
    # envL3 0
    # envL4 0.3
    # punch 0.37
    # envfLev1 369
    # envfLev2 19951
    # envfTime 0.01
    # envfCurve "-9.47"
    # pan (range 0.1 0.9 $ slow "<4 2.5>" cosine)
    # gain 0.95
  ,
  -- cym
  listen (cF 0 "92") $
  s "cymnewSd*7"
    # amp 0.34
    # att 0
    # rel "0.58 0.32 0.12 0.58 0.32 0.12 0.92"
    # curve "-11.66"
    # tu 6.08
    # pan (range 0.25 0.75 $ fast "<2 4 6>" sine)
    # gain 0.96
  ,
  -- noise1
  listen (cF 1 "93") $
  every 4 (# spec1 "<0.04 0.2 0.03>") $
  s "~@1.5 mutantFricSd mutantFricSd?"
    # amp 0.9
    # atk 0.44
    # sustain 2
    # rls 0.4
    # attack 0.01
    # release 1
    # spec1 0
    # spec2 0.06
    # noiseFreq 1.5
    # sigFreq 50
    # spring "0.11 0.06 0.06 0.11 0.06"
    # damp 4.54
    # beltmass 31.19
    # source 2
    # hpfFreq 24
    # hpf 80
    # pan (range 0.4 0.6 $ slow "<2.5 4>" cosine)
    # gain 1
  ,
  -- noise2
  listen (cF 1 "94") $
  every 4 rev $
  s "~ oneclapThorBrSd@1.5 oneclapThorBrSd"
    # amp 0.23
    # sustain 1
    # atk 0
    # rls 5
    # atkT 0.26
    # relT 0.04
    # tone 0.53
    # noiseAmp 0.08
    # freq 85
    # rq 0.07
    # echohz1 0
    # echohz2 0
    # curve "-10"
    # shelfFreq 8060
    # rs 0.45
    # db 6
    # size 0
    # mix 0
    # damp 0.5
    # hpf 90
    # pan (range 0.3 0.7 $ fast "<4 2.5 4>" cosine)
    # gain 0.98
] # cps 0.91

d9 silence
