d1 $ jux rev $ speed "<1 0.5 0.75>(<3 5>,8)" # sound "bev" # cut 1
  # room 0.4 # sz 0.9 # gain 1.3

d2 $ jux rev $ sound "sax(3,8)" # legato 1 # n 3
  # note "<[9 7] 5 [9 12]>" # djf 0.7 # sz 0.4 # room 0.4
